src/assets/images/brands/kswiss.svg

<svg height="38" viewBox="0 0 129 38" width="129" xmlns="http://www.w3.org/2000/svg"><path d="m50.82996 36.999981h7.354305l4.377575-17.335154 4.37756 17.335154h7.354301l4.552674-36.421333h-7.529412l-1.926132 17.86046-3.852257-17.86046h-5.953487l-3.852257 18.035562-2.101234-18.035562h-7.529412zm-6.829006-2.626537c1.225719-1.575921 1.575924-3.502053 1.575924-7.354306 0-3.677156-.700409-5.953489-3.32695-8.229824l-5.778386-5.077974c-1.225715-1.050615-1.400818-2.101233-1.400818-3.852259v-2.101228c0-1.050618.875515-1.575922 1.400818-1.575922.700413 0 1.400818.525304 1.400818 1.575922v3.852254h7.179215c.350204-7.704513-.875511-11.206565-8.229824-11.206565h-1.22572c-6.653898 0-8.229822 2.451435-8.229822 10.331052 0 4.027361.700413 5.603283 3.677158 8.229823l4.027357 3.677156c2.276333 2.276331 2.451436 2.80164 2.451436 5.428179v1.400821c0 1.050616-1.050618 1.400818-1.575921 1.400818-.875515 0-1.400821-.525304-1.400821-1.225715 0 0 0-2.276333 0-4.377564h-7.179209c0 4.377564 0 7.529411 1.926132 9.630642 1.400818 1.575924 2.976744 2.276329 6.128588 2.276329h1.57592c4.202465-.175102 5.953491-1.400818 7.004105-2.801639zm-22.41313-11.206564c2.451439 0 4.552671-2.101231 4.552671-4.55267 0-2.451435-2.101232-4.552667-4.552671-4.552667-2.451433 0-4.552666 2.101232-4.552666 4.552667 0 2.451439 2.101233 4.55267 4.552666 4.55267zm.350206 13.833101-8.580029-19.436386 8.229823-16.984947h-8.404923l-4.902871 11.206564v-11.206564h-7.35431v36.246235h7.35431v-13.658003l5.253078 13.658003h8.404922zm58.659367 0h8.054718v-36.421333h-8.054718zm18.21067-36.771542c-7.179199 0-8.22982 2.976746-8.22982 10.331053 0 4.027361.700401 5.778385 3.677162 8.404925l4.027344 3.677156c2.276337 2.276331 2.451447 2.80164 2.451447 5.428179v1.400821c0 1.050616-.875519 1.225718-1.400826 1.225718-.700409 0-1.225723-.350204-1.225723-1.050615 0 0 0-2.451439 0-4.377564h-7.354302c0 4.377564 0 7.529411 1.926133 9.630642 1.400817 1.575924 2.976737 2.276329 6.128585 2.276329h1.575928c4.027351 0 5.778374-1.225712 7.004097-2.626537 1.225716-1.57592 1.575928-3.502051 1.575928-7.354309 0-4.202461-.700409-6.128588-3.32695-8.404923l-5.778389-5.077974c-1.225716-1.050615-1.400811-2.101233-1.400811-3.852259v-2.451435c0-1.050615.875504-1.225715 1.225708-1.225715.350197 0 1.225716 0 1.225716 1.225715v4.377566h6.478798.700424c.175095-7.879618-.700424-11.556773-7.879623-11.556773zm20.136795 0h1.400826c7.354309 0 8.054718 3.677155 7.879623 11.556773h-.700424-6.653892c0-2.101233 0-4.377566 0-4.377566 0-1.050615-1.050614-1.225715-1.225716-1.225715-.350205 0-1.225708 0-1.225708 1.225715v2.101233c0 1.751026.350189 2.801637 1.40081 3.852253l5.778389 5.077976c2.626541 2.276337 3.32695 4.377565 3.32695 8.404928 0 3.852255-.35022 5.778381-1.575928 7.354309-1.225723 1.57592-2.976745 2.626538-7.004104 2.626538h-1.575928c-3.15184 0-4.72776-.700413-6.128578-2.276337-1.926132-2.101227-2.101242-5.428181-1.926132-9.630642h7.354301v4.377563c0 .700411.525315 1.05062 1.225723 1.05062.525307 0 1.400811-.175105 1.400811-1.225722v-1.225715c0-2.801644-.350197-3.326951-2.451432-5.428181l-3.852249-3.502052c-2.801643-2.62654-3.677154-4.377564-3.677154-8.404925 0-7.354307 1.050613-10.331053 8.229812-10.331053z"/></svg>

<?xml version="1.0" encoding="UTF-8"?>
<!-- Generated by Pixelmator Pro 3.6.14 -->
<svg width="129" height="38" viewBox="0 0 129 38" xmlns="http://www.w3.org/2000/svg">
    <path id="kswiss" fill="#000000" stroke="none" d="M 50.82996 36.999981 L 58.184265 36.999981 L 62.56184 19.664827 L 66.9394 36.999981 L 74.293701 36.999981 L 78.846375 0.578648 L 71.316963 0.578648 L 69.390831 18.439108 L 65.538574 0.578648 L 59.585087 0.578648 L 55.73283 18.61421 L 53.631596 0.578648 L 46.102184 0.578648 L 50.82996 36.999981 Z M 44.000954 34.373444 C 45.226673 32.797523 45.576878 30.871391 45.576878 27.019138 C 45.576878 23.341982 44.876469 21.065649 42.249928 18.789314 L 36.471542 13.71134 C 35.245827 12.660725 35.070724 11.610107 35.070724 9.859081 L 35.070724 7.757853 C 35.070724 6.707235 35.946239 6.181931 36.471542 6.181931 C 37.171955 6.181931 37.87236 6.707235 37.87236 7.757853 C 37.87236 7.757853 37.87236 9.508879 37.87236 11.610107 L 45.051575 11.610107 C 45.401779 3.905594 44.176064 0.403542 36.821751 0.403542 L 35.596031 0.403542 C 28.942133 0.403542 27.366209 2.854977 27.366209 10.734594 C 27.366209 14.761955 28.066622 16.337877 31.043367 18.964417 L 35.070724 22.641573 C 37.347057 24.917904 37.52216 25.443213 37.52216 28.069752 L 37.52216 29.470573 C 37.52216 30.521189 36.471542 30.871391 35.946239 30.871391 C 35.070724 30.871391 34.545418 30.346087 34.545418 29.645676 C 34.545418 29.645676 34.545418 27.369343 34.545418 25.268112 L 27.366209 25.268112 C 27.366209 29.645676 27.366209 32.797523 29.292341 34.898754 C 30.693159 36.474678 32.269085 37.175083 35.420929 37.175083 L 36.996849 37.175083 C 41.199314 36.999981 42.95034 35.774265 44.000954 34.373444 L 44.000954 34.373444 Z M 21.587824 23.16688 C 24.039263 23.16688 26.140495 21.065649 26.140495 18.61421 C 26.140495 16.162775 24.039263 14.061543 21.587824 14.061543 C 19.136391 14.061543 17.035158 16.162775 17.035158 18.61421 C 17.035158 21.065649 19.136391 23.16688 21.587824 23.16688 L 21.587824 23.16688 Z M 21.93803 36.999981 L 13.358001 17.563595 L 21.587824 0.578648 L 13.182901 0.578648 L 8.28003 11.785212 L 8.28003 0.578648 L 0.92572 0.578648 L 0.92572 36.824883 L 8.28003 36.824883 L 8.28003 23.16688 L 13.533108 36.824883 L 21.93803 36.824883 Z M 80.597397 36.999981 L 88.652115 36.999981 L 88.652115 0.578648 L 80.597397 0.578648 L 80.597397 36.999981 Z M 98.808067 0.228439 C 91.628868 0.228439 90.578247 3.205185 90.578247 10.559492 C 90.578247 14.586853 91.278648 16.337877 94.255409 18.964417 L 98.282753 22.641573 C 100.55909 24.917904 100.7342 25.443213 100.7342 28.069752 L 100.7342 29.470573 C 100.7342 30.521189 99.858681 30.696291 99.333374 30.696291 C 98.632965 30.696291 98.107651 30.346087 98.107651 29.645676 C 98.107651 29.645676 98.107651 27.194237 98.107651 25.268112 L 90.753349 25.268112 C 90.753349 29.645676 90.753349 32.797523 92.679482 34.898754 C 94.080299 36.474678 95.656219 37.175083 98.808067 37.175083 L 100.383995 37.175083 C 104.411346 37.175083 106.162369 35.949371 107.388092 34.548546 C 108.613808 32.972626 108.96402 31.046495 108.96402 27.194237 C 108.96402 22.991776 108.263611 21.065649 105.63707 18.789314 L 99.858681 13.71134 C 98.632965 12.660725 98.45787 11.610107 98.45787 9.859081 L 98.45787 7.407646 C 98.45787 6.357031 99.333374 6.181931 99.683578 6.181931 C 100.033775 6.181931 100.909294 6.181931 100.909294 7.407646 C 100.909294 7.407646 100.909294 9.683979 100.909294 11.785212 L 107.388092 11.785212 L 108.088516 11.785212 C 108.263611 3.905594 107.388092 0.228439 100.208893 0.228439 L 98.808067 0.228439 L 98.808067 0.228439 Z M 118.944862 0.228439 L 120.345688 0.228439 C 127.699997 0.228439 128.400406 3.905594 128.225311 11.785212 L 127.524887 11.785212 L 120.870995 11.785212 C 120.870995 9.683979 120.870995 7.407646 120.870995 7.407646 C 120.870995 6.357031 119.820381 6.181931 119.645279 6.181931 C 119.295074 6.181931 118.419571 6.181931 118.419571 7.407646 L 118.419571 9.508879 C 118.419571 11.259905 118.76976 12.310516 119.820381 13.361132 L 125.59877 18.439108 C 128.225311 20.715445 128.92572 22.816673 128.92572 26.844036 C 128.92572 30.696291 128.5755 32.622417 127.349792 34.198345 C 126.124069 35.774265 124.373047 36.824883 120.345688 36.824883 L 118.76976 36.824883 C 115.61792 36.824883 114.042 36.12447 112.641182 34.548546 C 110.71505 32.447319 110.53994 29.120365 110.71505 24.917904 L 118.069351 24.917904 C 118.069351 26.844036 118.069351 29.295467 118.069351 29.295467 C 118.069351 29.995878 118.594666 30.346087 119.295074 30.346087 C 119.820381 30.346087 120.695885 30.170982 120.695885 29.120365 L 120.695885 27.89465 C 120.695885 25.093006 120.345688 24.567699 118.244453 22.466469 L 114.392204 18.964417 C 111.590561 16.337877 110.71505 14.586853 110.71505 10.559492 C 110.71505 3.205185 111.765663 0.228439 118.944862 0.228439 L 118.944862 0.228439 Z"/>
</svg>
